T: Tarantella
M: 6/8
L: 1/8
K: Amin
e2 e a2 a | e2 e ede | f2 f fgf | e3- e2 e |e2 d ded | d2 c cdc | B^GB dcB | A3 :|cBc dcB | c2 A ABc | B2 B dcB | c2 A EAB |cBc dcB | c2 A ABc | B2 B dcB | A3 :|e2 e a2 a | e2 e ede | f2 f fgf | e3- e2 e |e2 d ded | d2 c cdc | B^GB dcB | A3 :|cBc ece | g2 g gag | f2 f fgf | e2 e GAB |cBc ece | g2 g gag | bag fed | c3 :|]
